X: 23976
T: Lockdown, The
R: waltz
M: 3/4
K: Cmajor
G,2|:E3 D EF|G2 B,2 G2|F3 E DC|E2 D2 B,2|
E3 D EF|G2 B,2 G2|G2 F3 E|1 D4 G,2:|2 D4 G2||
|:A3 A GF|G2 C2 E2|F3 E DC|D4 G2|
A2 AG FA|G2 C2 DE|FE DC B,D|1 C4 G2:|2 C4 z2||

